X: 22005
T: Kitty's Rambles
R: jig
M: 6/8
K: Dmixolydian
|:DFA cAA|dAd efg|fed cAG|FAF GFE|
DFA cAA|dAd efg|fed cAG|Ad^c d2 D:|
|:dfa dfa|dfa afd|ceg ceg|ceg gfe|
fdf ggg|afd efg|(3gfed cAG|1 Ad^c d2A:|2 Ad^c d (3efg||
|:afd dAF|Adf a2f|gec cBc|Gce gfe|
[1 fdf ~g3|afd efg|(3gfed cAG|Ad^c d2f:|
[2 fdf ~g3|~a3 bag|(3gfed cAG|Ad^c d2f||

